X: 36912
T: Shootin' The Bull
R: polka
M: 2/4
K: Adorian
B/c/d|:eA Ad|ef gf|ea ae|d2 B/c/d|
eA Ad|ef gf|ef/e/ dB|1 A2 B/c/d:|2 A2 A2||
|:ea ag|ed d2|ea ag|eg g>f|
ea ag|ed d2|ef/e/ dB|1 A2 A2:|2 A2 B/c/d||

